src/status/symbolic/changes-allow-symbolic.svg

<?xml version="1.0" encoding="UTF-8" standalone="no"?>
<svg
   width="16"
   height="16"
   version="1.1"
   id="svg1"
   sodipodi:docname="changes-allow-symbolic.svg"
   inkscape:version="1.3.2 (091e20ef0f, 2023-11-25)"
   xmlns:inkscape="http://www.inkscape.org/namespaces/inkscape"
   xmlns:sodipodi="http://sodipodi.sourceforge.net/DTD/sodipodi-0.dtd"
   xmlns="http://www.w3.org/2000/svg"
   xmlns:svg="http://www.w3.org/2000/svg">
  <defs
     id="defs1" />
  <sodipodi:namedview
     id="namedview1"
     pagecolor="#ffffff"
     bordercolor="#111111"
     borderopacity="1"
     inkscape:showpageshadow="0"
     inkscape:pageopacity="0"
     inkscape:pagecheckerboard="1"
     inkscape:deskcolor="#d1d1d1"
     inkscape:zoom="50.1875"
     inkscape:cx="8"
     inkscape:cy="8"
     inkscape:window-width="1920"
     inkscape:window-height="1011"
     inkscape:window-x="0"
     inkscape:window-y="0"
     inkscape:window-maximized="1"
     inkscape:current-layer="svg1" />
  <path
     fill="#363636"
     d="M 8,0 C 5.6362667,0 3.7333333,1.9029333 3.7333333,4.2666667 H 4.8 c 0,-1.7728 1.4272,-3.2 3.2,-3.2 1.7728,0 3.2,1.4272 3.2,3.2 V 6.4 H 5.8666667 4.8 3.7333333 C 2.5514667,6.4 1.6,7.3514667 1.6,8.5333333 V 13.866667 C 1.6,15.048533 2.5514667,16 3.7333333,16 H 12.266667 C 13.448533,16 14.4,15.048533 14.4,13.866667 V 8.5333333 C 14.4,7.3514667 13.448533,6.4 12.266667,6.4 V 4.2666667 C 12.266667,1.9029333 10.363733,0 8,0 Z M 3.7333333,7.4666667 h 8.5333337 c 0.590933,0 1.066666,0.4757333 1.066666,1.0666666 v 5.3333337 c 0,0.590933 -0.475733,1.066666 -1.066666,1.066666 H 3.7333333 C 3.1424,14.933333 2.6666667,14.4576 2.6666667,13.866667 V 8.5333333 C 2.6666667,7.9424 3.1424,7.4666667 3.7333333,7.4666667 Z"
     id="path1"
     style="stroke-width:1.06667" />
</svg>

<?xml version="1.0" encoding="UTF-8"?>
<svg id="svg1" width="16" height="16" version="1.1" xmlns="http://www.w3.org/2000/svg">
 <path id="path1" d="m8 0c-2.3637 0-4.2667 1.9029-4.2667 4.2667h1.0667c0-1.7728 1.4272-3.2 3.2-3.2s3.2 1.4272 3.2 3.2v2.1333h-7.4667c-1.1819 0-2.1333 0.95147-2.1333 2.1333v5.3333c0 1.1819 0.95147 2.1333 2.1333 2.1333h8.5333c1.1819 0 2.1333-0.95147 2.1333-2.1333v-5.3333c0-1.1819-0.95147-2.1333-2.1333-2.1333v-2.1333c0-2.3637-1.9029-4.2667-4.2667-4.2667zm-4.2667 7.4667h8.5333c0.59093 0 1.0667 0.47573 1.0667 1.0667v5.3333c0 0.59093-0.47573 1.0667-1.0667 1.0667h-8.5333c-0.59093 0-1.0667-0.47573-1.0667-1.0667v-5.3333c0-0.59093 0.47573-1.0667 1.0667-1.0667z" fill="#363636" stroke-width="1.0667"/>
</svg>
